local/share/icons/dracula-icons-main/scalable/apps/quodlibet.svg

<?xml version="1.0" encoding="UTF-8"?>
<svg xmlns="http://www.w3.org/2000/svg" xmlns:xlink="http://www.w3.org/1999/xlink" width="64" height="64" viewBox="0 0 64 64">
<defs>
<filter id="filter-remove-color" x="0%" y="0%" width="100%" height="100%">
<feColorMatrix color-interpolation-filters="sRGB" values="0 0 0 0 1 0 0 0 0 1 0 0 0 0 1 0 0 0 1 0" />
</filter>
<mask id="mask-0">
<g filter="url(#filter-remove-color)">
<rect x="-6.4" y="-6.4" width="76.8" height="76.8" fill="rgb(0%, 0%, 0%)" fill-opacity="0.1"/>
</g>
</mask>
<clipPath id="clip-0">
<rect x="0" y="0" width="64" height="64"/>
</clipPath>
<g id="source-6567" clip-path="url(#clip-0)">
<path fill-rule="nonzero" fill="rgb(100%, 100%, 100%)" fill-opacity="1" d="M 32 9 C 44.703125 9 55 19.296875 55 32 C 55 44.703125 44.703125 55 32 55 C 19.296875 55 9 44.703125 9 32 C 9 19.296875 19.296875 9 32 9 Z M 32 9 "/>
</g>
</defs>
<path fill-rule="nonzero" fill="rgb(10.588235%, 20%, 25.490196%)" fill-opacity="1" d="M 32 5 C 46.910156 5 59 17.085938 59 32 C 59 46.910156 46.910156 59 32 59 C 17.085938 59 5 46.910156 5 32 C 5 17.085938 17.085938 5 32 5 Z M 32 5 "/>
<g mask="url(#mask-0)">
<use xlink:href="#source-6567"/>
</g>
<path fill-rule="nonzero" fill="rgb(100%, 100%, 100%)" fill-opacity="1" d="M 24.34375 12.058594 C 20.796875 11.894531 18.542969 15.71875 20.789062 18.214844 C 23.015625 21.339844 28.339844 23.253906 31.953125 20.914062 C 31.953125 31.5 32 43.414062 32 54 C 34.148438 54.527344 33.15625 51.054688 33.664062 49.835938 C 34.671875 45.242188 39.601562 42.851562 42.777344 39.5625 C 45.375 36.878906 45.71875 32.78125 43.441406 29.808594 C 42.796875 28.96875 40.707031 25.515625 41.023438 26.171875 C 42.429688 28.863281 44.230469 31.886719 43.378906 34.941406 C 42.300781 38.601562 38.375 40.941406 34.347656 41.507812 C 33.320312 41.648438 33.386719 41.367188 33.285156 39.84375 L 33.285156 17.140625 C 31.9375 14.050781 28.007812 11.957031 24.34375 12.058594 Z M 24.769531 13.039062 C 28.179688 12.890625 32.289062 15.34375 31.859375 18.667969 C 30.976562 21.609375 26.472656 21.390625 24.183594 19.945312 C 21.640625 18.847656 19.761719 15.039062 22.84375 13.507812 C 23.429688 13.21875 24.101562 13.078125 24.769531 13.035156 Z M 24.769531 13.039062 "/>
</svg>

<svg width="64" height="64" version="1.1" viewBox="0 0 64 64" xmlns="http://www.w3.org/2000/svg">
 <g transform="matrix(1.1739,0,0,1.1739,3.8261,3.8254)">
  <path d="m24 1c12.703 0 23 10.297 23 23s-10.297 23-23 23-23-10.297-23-23 10.297-23 23-23z" fill="#1b3341"/>
  <path d="m24 4.408c10.821 0 19.592 8.7712 19.592 19.592s-8.7712 19.592-19.592 19.592-19.592-8.7712-19.592-19.592 8.7712-19.592 19.592-19.592z" fill="#fff" opacity=".1" stroke-width=".85182"/>
  <g transform="translate(1,1)"></g>
 </g>
 <path d="m24.343 12.059c-3.548-0.1628-5.7995 3.6615-3.5553 6.1574 2.226 3.1253 7.5532 5.0372 11.164 2.6984 0 10.587 0.04866 22.498 0.04866 33.085 2.1495 0.52656 1.1575-2.9452 1.6633-4.1626 1.0075-4.5961 5.9376-6.9861 9.1118-10.275 2.598-2.6822 2.9418-6.7815 0.66484-9.7517-0.64494-0.84148-2.7315-4.2949-2.4167-3.6386 1.4042 2.6928 3.2078 5.7167 2.357 8.7701-1.0786 3.6615-5.0053 5.9987-9.0314 6.5676-1.029 0.13736-0.96293-0.14245-1.0653-1.6657v-22.702c-1.3483-3.0897-5.2759-5.1838-8.9405-5.083zm0.42574 0.97986c3.409-0.14754 7.5191 2.3036 7.0908 5.6282-0.88382 2.9411-5.388 2.7218-7.6759 1.28-2.5429-1.0994-4.4202-4.909-1.3418-6.4374 0.5893-0.28999 1.2583-0.43244 1.9269-0.47314z" fill="#fff"/>
</svg>
